X: 7612
T:Polkett fr J\"amtland
R:Polkett
O:Sweden
M:4/4
A:J\"amtland
K:D
A2a2 a2^ga | b2ag f2a2 | A2f2 f2ed | c2ec A4 |\
A2ce g2fg | a2gf g2e2 | c2A2 A2Bc \
|1 d2AG FED2 :|2 d2d2d2 ||
|: de |\
f2de f2d2 | d2c2 cAef | g2ef g2e2 | e2d2 dAde |\
f2de f2d2 | d2c2 cAef | g2e2 a3c | c2d2 d4 :|
